X:1
T:Send In The Clowns
T:SEND IN THE CLOWNS
C:Stephen Sondheim
Z:All Rights Reserved
L:1/8
M:12/8
K:Eb
V:1 treble 
%%MIDI program 0
V:1
"^Lento" A,B,E |:"Eb" E3 z3 z3"Ebsus4" A,B,E |"Eb" E3 z3 z3"Emaj9" FGE |[M:9/8]"Eb" FGG G3 GBB, | %4
w: Is- n't it|rich? * we a|pair? Me here at|last on the ground, you in mid-|
w: |bliss? * you ap-|prove? One who keeps|tear- ing a- round, one who can't|
[M:12/8]"Abmaj9" C3 z3 z3"Ab6" CEA, |1"Bb/Eb" B,6 z4"Ab/Eb" z2 |"Bb/Eb" z6 z3"Ab/Eb" A,B,E :|2 %7
w: air. Send In The|Clowns.|Is- n't it|
w: move. Where are the|||
"Bb/Eb" B,6 z3"Fm/Eb" CED ||"Eb" E6 z3 DGF |"Gm" G6 z3"Dm7" DGF |"Gm" G6 z3"Dm9" D=AF | %11
w: clowns Send In The|Clowns. Just when I'd|stopped o- pen- ing|doors, Fi- nal- ly|
w: ||||
[M:9/8]"Gm" G=AA ABB BAF |[M:12/8]"Cm7" G6 z3"G" DGD |[M:9/8]"Eb6/Bb" EFF"F7/A" FGG"Ab6" GFC | %14
w: know- ing the one that I want- ed was|yours, Mak- ing my|en- trance a- gain with my u- su- al|
w: |||
[M:12/8]"Gsus4" D6 z3"Fm7b5" _CEC |"Gm/Bb" D6 z3"Ab6/Bb" CEA, |"Bb/Eb" B,6 z4"Ab" z2 | %17
w: flair, Sure of my|lines, No one is|there.|
w: |||
"Eb/Eb""B" z6 z3"Ab" A,B,E |:"Eb" E3 z3 z3"Ebsus4" A,B,E |"Eb" E3 z3 z3"Ebmaj9" FGE | %20
w: Don't you love|farce? My fault, I|fear. I thought that|
w: |rich, Is- n't it|queer, Los- ing my|
[M:9/8]"Eb" FGG G B2 GBB, |[M:12/8]"Abmaj9" C6 z2 B,"Ab6" CEA, |"B7/Eb" B,6 z2 B, CEA, |1 %23
w: you'd want what I want. Sor- ry, my|dear. But where are the|clowns Quick Send In The|
w: tim- ing this late * in my ca-|reer? And where are the|clowns There ought to be|
"Bb9/Eb" B,6 z2 B, CED |"Eb" E6 z4"Ebsus4" z2 |"Eb" z6 z3"Ebsus4" A,B,E :|2"Bb9/Eb" B,6 z2 B, CEF | %27
w: Clowns. Don't both- er, they're|here|Is- n't it|clowns. Well, may- be next|
w: ||||
"Eb" E6 z4"Ebsus4" z2 |"Eb" z12 |] %29
w: year||
w: ||

